dist/assets/icons/icon-zalo.svg

<svg width="32" height="32" viewBox="0 0 32 32" fill="none" xmlns="http://www.w3.org/2000/svg">
<path fill-rule="evenodd" clip-rule="evenodd" d="M0 16C0 7.16344 7.16344 0 16 0C24.8366 0 32 7.16344 32 16C32 24.8366 24.8366 32 16 32C7.16344 32 0 24.8366 0 16Z" fill="#FF3B3B"/>
<path fill-rule="evenodd" clip-rule="evenodd" d="M17.2682 14.3584V13.9313H18.5551V19.9373H17.8188C17.5157 19.9373 17.2698 19.6939 17.2682 19.3931C17.268 19.3933 17.2678 19.3933 17.2676 19.3935C16.7493 19.7703 16.1086 19.9942 15.4166 19.9942C13.6834 19.9942 12.2781 18.5979 12.2781 16.8758C12.2781 15.1537 13.6834 13.7576 15.4166 13.7576C16.1086 13.7576 16.7493 13.9812 17.2676 14.358C17.2678 14.3582 17.268 14.3582 17.2682 14.3584V14.3584ZM11.9447 12V12.1946C11.9447 12.5579 11.8958 12.8543 11.6585 13.2022L11.6299 13.2347C11.578 13.2932 11.4564 13.4305 11.3985 13.5048L7.26746 18.66H11.9447V19.3898C11.9447 19.6923 11.6979 19.9373 11.3937 19.9373H5.33337V19.5932C5.33337 19.1717 5.43869 18.9838 5.57176 18.7879L9.97569 13.3685H5.51699V12H11.9447V12ZM20.1159 19.9373C19.8628 19.9373 19.657 19.7328 19.657 19.4816V12H21.0343V19.9373H20.1159ZM25.1071 13.7199C26.8522 13.7199 28.2667 15.1266 28.2667 16.8591C28.2667 18.5933 26.8522 20 25.1071 20C23.3617 20 21.9474 18.5933 21.9474 16.8591C21.9474 15.1266 23.3617 13.7199 25.1071 13.7199V13.7199ZM15.4166 18.7104C16.4365 18.7104 17.263 17.8892 17.263 16.8758C17.263 15.864 16.4365 15.0426 15.4166 15.0426C14.3967 15.0426 13.57 15.864 13.57 16.8758C13.57 17.8892 14.3967 18.7104 15.4166 18.7104ZM25.1071 18.7073C26.133 18.7073 26.9656 17.8801 26.9656 16.8591C26.9656 15.8398 26.133 15.0126 25.1071 15.0126C24.0795 15.0126 23.2483 15.8398 23.2483 16.8591C23.2483 17.8801 24.0795 18.7073 25.1071 18.7073Z" fill="white"/>
</svg>

<svg width="32" height="32" fill="none" xmlns="http://www.w3.org/2000/svg"><path fill-rule="evenodd" clip-rule="evenodd" d="M0 16C0 7.163 7.163 0 16 0s16 7.163 16 16-7.163 16-16 16S0 24.837 0 16z" fill="#FF3B3B"/><path fill-rule="evenodd" clip-rule="evenodd" d="M17.268 14.358v-.427h1.287v6.006h-.736a.549.549 0 01-.55-.544h-.001a3.14 3.14 0 01-1.851.601 3.129 3.129 0 01-3.139-3.118 3.129 3.129 0 013.139-3.118 3.14 3.14 0 011.85.6h.001zM11.945 12v.195c0 .363-.05.66-.287 1.007l-.028.033a7.36 7.36 0 00-.232.27l-4.13 5.155h4.677v.73a.55.55 0 01-.551.547h-6.06v-.344c0-.421.105-.61.238-.805l4.404-5.42H5.517V12h6.428zm8.17 7.937a.458.458 0 01-.458-.455V12h1.377v7.937h-.918zm4.992-6.217c1.745 0 3.16 1.407 3.16 3.14a3.15 3.15 0 01-3.16 3.14 3.15 3.15 0 01-3.16-3.14c0-1.733 1.415-3.14 3.16-3.14zm-9.69 4.99a1.84 1.84 0 001.846-1.834 1.84 1.84 0 00-1.846-1.833 1.84 1.84 0 00-1.847 1.833 1.84 1.84 0 001.847 1.834zm9.69-.003a1.854 1.854 0 001.859-1.848c0-1.02-.833-1.846-1.859-1.846a1.852 1.852 0 00-1.859 1.846c0 1.021.831 1.848 1.86 1.848z" fill="#fff"/></svg>
